X: 36
T:Billy In The Lo
R:Reel
C:via PR
S:Nottingham Music Database
M:4/4
L:1/8
Q:1/4=200
K:C
| G,A,CD EGAB|cBcd cAGB|ABAG EGAB|(3cBA GE DCCA,|
G,A,CD EGAB|cBcd cAGB|ABAG EGAB|(3cBA GE D2C2:|
|:eg2e g2eg|aged cAG2|ea2g a2eg|agab age2|
eg2e g2eg|aged cAG2|ABAG EGAB|(3cBA GE D2C2:|
